img/icon.svg

<svg xmlns="http://www.w3.org/2000/svg" xmlns:svg="http://www.w3.org/2000/svg" id="svg30" width="155.425" height="143.813" version="1.1" xml:space="preserve"><metadata id="metadata36"/><defs id="defs34"><mask id="mask12539" maskUnits="userSpaceOnUse"><path style="fill:#fff;fill-opacity:1;stroke:none;stroke-width:.0672533;stroke-opacity:1" id="path12541" d="M 61.472032,106.18291 C 53.58256,102.90807 47.3902,97.004959 43.823805,89.359025 41.133943,83.592288 40.145108,77.229746 40.956672,70.910888 c 0.84886,-6.609211 3.66517,-12.826596 8.103401,-17.889354 0.829397,-0.946109 2.562065,-2.630138 3.59105,-3.490238 5.392221,-4.50725 11.970978,-7.181399 19.054719,-7.745428 1.308973,-0.104219 4.878235,-0.04646 6.101733,0.0987 6.702446,0.795368 12.816083,3.404383 17.888959,7.634147 0.963524,0.803384 2.775424,2.568269 3.596128,3.502807 6.916238,7.875564 9.777468,18.500601 7.733288,28.717122 -1.29292,6.461807 -4.48746,12.450654 -9.103746,17.06695 -2.137371,2.137386 -4.483685,3.944616 -7.001115,5.392586 -1.846911,1.06231 -4.869297,2.42543 -5.372264,2.42295 l -0.242518,-10e-4 -4.001565,-10.430157 c -2.200861,-5.736584 -4.009011,-10.449651 -4.018113,-10.47348 -0.0091,-0.0238 0.248144,-0.146198 0.571653,-0.271912 1.977541,-0.768479 3.437264,-1.797009 4.686575,-3.302221 1.236694,-1.490016 1.971575,-3.066061 2.3676,-5.077626 0.163367,-0.82979 0.164376,-2.838903 0.0018,-3.711449 -0.566946,-3.044052 -2.262816,-5.60616 -4.819603,-7.281409 -1.145062,-0.750263 -2.623297,-1.343891 -3.968471,-1.593662 -0.892935,-0.165793 -3.007755,-0.165793 -3.900691,0 -3.880776,0.720569 -7.138169,3.546428 -8.372531,7.263348 -1.47384,4.438015 0.01732,9.280324 3.730458,12.114622 0.877451,0.669755 2.056043,1.294147 3.247555,1.720479 0.139252,0.04987 0.245175,0.111427 0.235389,0.136883 -0.01026,0.02545 -1.818501,4.739843 -4.01936,10.476427 l -4.001567,10.430157 -0.269018,-0.004 c -0.171325,-0.002 -0.645018,-0.15969 -1.30445,-0.43341 z"/></mask><mask id="mask12543" maskUnits="userSpaceOnUse"><path style="fill:#fff;fill-opacity:1;stroke:none;stroke-width:.0672533;stroke-opacity:1" id="path12545" d="M 61.472032,106.18291 C 53.58256,102.90807 47.3902,97.004959 43.823805,89.359025 41.133943,83.592288 40.145108,77.229746 40.956672,70.910888 c 0.84886,-6.609211 3.66517,-12.826596 8.103401,-17.889354 0.829397,-0.946109 2.562065,-2.630138 3.59105,-3.490238 5.392221,-4.50725 11.970978,-7.181399 19.054719,-7.745428 1.308973,-0.104219 4.878235,-0.04646 6.101733,0.0987 6.702446,0.795368 12.816083,3.404383 17.888959,7.634147 0.963524,0.803384 2.775424,2.568269 3.596128,3.502807 6.916238,7.875564 9.777468,18.500601 7.733288,28.717122 -1.29292,6.461807 -4.48746,12.450654 -9.103746,17.06695 -2.137371,2.137386 -4.483685,3.944616 -7.001115,5.392586 -1.846911,1.06231 -4.869297,2.42543 -5.372264,2.42295 l -0.242518,-10e-4 -4.001565,-10.430157 c -2.200861,-5.736584 -4.009011,-10.449651 -4.018113,-10.47348 -0.0091,-0.0238 0.248144,-0.146198 0.571653,-0.271912 1.977541,-0.768479 3.437264,-1.797009 4.686575,-3.302221 1.236694,-1.490016 1.971575,-3.066061 2.3676,-5.077626 0.163367,-0.82979 0.164376,-2.838903 0.0018,-3.711449 -0.566946,-3.044052 -2.262816,-5.60616 -4.819603,-7.281409 -1.145062,-0.750263 -2.623297,-1.343891 -3.968471,-1.593662 -0.892935,-0.165793 -3.007755,-0.165793 -3.900691,0 -3.880776,0.720569 -7.138169,3.546428 -8.372531,7.263348 -1.47384,4.438015 0.01732,9.280324 3.730458,12.114622 0.877451,0.669755 2.056043,1.294147 3.247555,1.720479 0.139252,0.04987 0.245175,0.111427 0.235389,0.136883 -0.01026,0.02545 -1.818501,4.739843 -4.01936,10.476427 l -4.001567,10.430157 -0.269018,-0.004 c -0.171325,-0.002 -0.645018,-0.15969 -1.30445,-0.43341 z"/></mask><mask id="mask12547" maskUnits="userSpaceOnUse"><path style="fill:#fff;fill-opacity:1;stroke:none;stroke-width:.0672533;stroke-opacity:1" id="path12549" d="M 61.472032,106.18291 C 53.58256,102.90807 47.3902,97.004959 43.823805,89.359025 41.133943,83.592288 40.145108,77.229746 40.956672,70.910888 c 0.84886,-6.609211 3.66517,-12.826596 8.103401,-17.889354 0.829397,-0.946109 2.562065,-2.630138 3.59105,-3.490238 5.392221,-4.50725 11.970978,-7.181399 19.054719,-7.745428 1.308973,-0.104219 4.878235,-0.04646 6.101733,0.0987 6.702446,0.795368 12.816083,3.404383 17.888959,7.634147 0.963524,0.803384 2.775424,2.568269 3.596128,3.502807 6.916238,7.875564 9.777468,18.500601 7.733288,28.717122 -1.29292,6.461807 -4.48746,12.450654 -9.103746,17.06695 -2.137371,2.137386 -4.483685,3.944616 -7.001115,5.392586 -1.846911,1.06231 -4.869297,2.42543 -5.372264,2.42295 l -0.242518,-10e-4 -4.001565,-10.430157 c -2.200861,-5.736584 -4.009011,-10.449651 -4.018113,-10.47348 -0.0091,-0.0238 0.248144,-0.146198 0.571653,-0.271912 1.977541,-0.768479 3.437264,-1.797009 4.686575,-3.302221 1.236694,-1.490016 1.971575,-3.066061 2.3676,-5.077626 0.163367,-0.82979 0.164376,-2.838903 0.0018,-3.711449 -0.566946,-3.044052 -2.262816,-5.60616 -4.819603,-7.281409 -1.145062,-0.750263 -2.623297,-1.343891 -3.968471,-1.593662 -0.892935,-0.165793 -3.007755,-0.165793 -3.900691,0 -3.880776,0.720569 -7.138169,3.546428 -8.372531,7.263348 -1.47384,4.438015 0.01732,9.280324 3.730458,12.114622 0.877451,0.669755 2.056043,1.294147 3.247555,1.720479 0.139252,0.04987 0.245175,0.111427 0.235389,0.136883 -0.01026,0.02545 -1.818501,4.739843 -4.01936,10.476427 l -4.001567,10.430157 -0.269018,-0.004 c -0.171325,-0.002 -0.645018,-0.15969 -1.30445,-0.43341 z"/></mask></defs><title id="title2">Flag of the Marshall Islands</title><path id="path897" d="M 36.447119,14.181737 V 36.516994 H 14.111861 v 8.82129 c 10.385516,0 20.771032,0 31.156548,0 0,-10.385516 0,-20.771032 0,-31.156547 z" style="fill:#9063cd;fill-opacity:1;stroke:#9063cd;stroke-width:5;stroke-linecap:butt;stroke-linejoin:miter;stroke-dasharray:none;stroke-opacity:1"/><path id="path897-6" d="M 93.498034,3.5355359 77.704623,19.328947 61.911209,3.5355359 55.673616,9.7731306 C 63.017285,17.116797 70.360954,24.460465 77.704623,31.804134 85.048289,24.460465 92.391958,17.116797 99.735615,9.7731306 Z" style="fill:#9063cd;fill-opacity:1;stroke:#9063cd;stroke-width:5;stroke-linecap:butt;stroke-linejoin:miter;stroke-dasharray:none;stroke-opacity:1"/><path id="path897-7" d="m 118.74847,14.111858 v 22.335258 h 22.33524 v 8.821289 c -10.38552,0 -20.77102,0 -31.15654,0 0,-10.385515 0,-20.771031 0,-31.156547 z" style="fill:#9063cd;fill-opacity:1;stroke:#9063cd;stroke-width:5;stroke-linecap:butt;stroke-linejoin:miter;stroke-dasharray:none;stroke-opacity:1"/><path id="path897-3" d="M 36.447119,141.24324 V 118.90797 H 14.111861 v -8.82128 c 10.385516,0 20.771032,0 31.156548,0 0,10.38552 0,20.77102 0,31.15655 z" style="fill:#9063cd;fill-opacity:1;stroke:#9063cd;stroke-width:5;stroke-linecap:butt;stroke-linejoin:miter;stroke-dasharray:none;stroke-opacity:1"/><path id="path897-7-6" d="m 118.74847,141.31311 v -22.33525 h 22.33524 v -8.82129 c -10.38552,0 -20.77102,0 -31.15654,0 0,10.38552 0,20.77104 0,31.15654 z" style="fill:#9063cd;fill-opacity:1;stroke:#9063cd;stroke-width:5;stroke-linecap:butt;stroke-linejoin:miter;stroke-dasharray:none;stroke-opacity:1"/><path id="path897-6-1" d="M 3.535536,61.76741 19.328948,77.560822 3.535536,93.354236 9.7731307,99.591829 C 17.116797,92.24816 24.460466,84.904491 31.804135,77.560822 24.460466,70.217156 17.116797,62.873487 9.7731307,55.52983 Z" style="fill:#9063cd;fill-opacity:1;stroke:#9063cd;stroke-width:5;stroke-linecap:butt;stroke-linejoin:miter;stroke-dasharray:none;stroke-opacity:1"/><path id="path897-6-5-9" d="m 151.88943,61.767406 -15.7934,15.793411 15.7934,15.793414 -6.2376,6.237593 c -7.34367,-7.343669 -14.68733,-14.687338 -22.031,-22.031007 7.34367,-7.343666 14.68733,-14.687335 22.031,-22.030992 z" style="fill:#9063cd;fill-opacity:1;stroke:#9063cd;stroke-width:5;stroke-linecap:butt;stroke-linejoin:miter;stroke-dasharray:none;stroke-opacity:1"/><path style="color:#000;fill:#9063cd;stroke-linecap:square;stroke-miterlimit:2.5;stroke-dashoffset:8.50395;-inkscape-stroke:none;fill-opacity:1" id="path15729" d="m 77.678116,47.193738 c -7.634301,0 -15.270107,2.89706 -21.0625,8.689453 -11.584786,11.584786 -11.584786,30.536308 0,42.121094 l 3.958984,3.958985 8.277701,-9.056659 c -0.873948,-0.439961 -3.001008,-1.49868 -4.320669,-2.818342 -7.306747,-7.306749 -7.306748,-18.982314 0,-26.289062 7.306748,-7.306748 18.984267,-7.306748 26.291015,0 7.306749,7.306748 7.306749,18.982314 0,26.289062 -1.296199,1.332697 -2.770709,2.01047 -4.479379,2.888232 l 8.436411,8.986769 3.958984,-3.958985 c 11.584787,-11.584786 11.584787,-30.536308 0,-42.121094 C 92.94627,50.090798 85.312417,47.193738 77.678116,47.193738 Z"/><path style="fill:#9063cd;fill-opacity:1;stroke:none;stroke-width:1px;stroke-linecap:butt;stroke-linejoin:miter;stroke-opacity:1" id="path15731" d="m 95.01668,101.31816 7.493,42.49495 H 91.680311 L 82.959773,94.356481 c 1.470451,-0.531078 2.419526,-0.907743 3.383495,-1.37998 z"/><path style="fill:#9063cd;fill-opacity:1;stroke:none;stroke-width:1px;stroke-linecap:butt;stroke-linejoin:miter;stroke-opacity:1" id="path15731-2" d="m 60.178889,101.24827 -7.493004,42.49495 h 10.829373 l 8.720538,-49.456629 c -1.470451,-0.531078 -2.419526,-0.907743 -3.383495,-1.37998 z"/></svg>

<?xml version="1.0" encoding="UTF-8" standalone="no"?>
<svg
   width="155.42496"
   height="143.81311"
   version="1.1"
   id="svg30"
   sodipodi:docname="icon.svg"
   inkscape:version="1.2.1 (9c6d41e410, 2022-07-14)"
   xml:space="preserve"
   inkscape:export-filename="icon.pdf"
   inkscape:export-xdpi="667.07434"
   inkscape:export-ydpi="667.07434"
   xmlns:inkscape="http://www.inkscape.org/namespaces/inkscape"
   xmlns:sodipodi="http://sodipodi.sourceforge.net/DTD/sodipodi-0.dtd"
   xmlns="http://www.w3.org/2000/svg"
   xmlns:svg="http://www.w3.org/2000/svg"
   xmlns:rdf="http://www.w3.org/1999/02/22-rdf-syntax-ns#"
   xmlns:cc="http://creativecommons.org/ns#"
   xmlns:dc="http://purl.org/dc/elements/1.1/"><metadata
     id="metadata36"><rdf:RDF><cc:Work
         rdf:about=""><dc:format>image/svg+xml</dc:format><dc:type
           rdf:resource="http://purl.org/dc/dcmitype/StillImage" /><dc:title>Flag of the Marshall Islands</dc:title></cc:Work></rdf:RDF></metadata><defs
     id="defs34"><mask
       maskUnits="userSpaceOnUse"
       id="mask12539"><path
         style="fill:#ffffff;fill-opacity:1;stroke:none;stroke-width:0.0672533;stroke-opacity:1"
         d="M 61.472032,106.18291 C 53.58256,102.90807 47.3902,97.004959 43.823805,89.359025 41.133943,83.592288 40.145108,77.229746 40.956672,70.910888 c 0.84886,-6.609211 3.66517,-12.826596 8.103401,-17.889354 0.829397,-0.946109 2.562065,-2.630138 3.59105,-3.490238 5.392221,-4.50725 11.970978,-7.181399 19.054719,-7.745428 1.308973,-0.104219 4.878235,-0.04646 6.101733,0.0987 6.702446,0.795368 12.816083,3.404383 17.888959,7.634147 0.963524,0.803384 2.775424,2.568269 3.596128,3.502807 6.916238,7.875564 9.777468,18.500601 7.733288,28.717122 -1.29292,6.461807 -4.48746,12.450654 -9.103746,17.06695 -2.137371,2.137386 -4.483685,3.944616 -7.001115,5.392586 -1.846911,1.06231 -4.869297,2.42543 -5.372264,2.42295 l -0.242518,-10e-4 -4.001565,-10.430157 c -2.200861,-5.736584 -4.009011,-10.449651 -4.018113,-10.47348 -0.0091,-0.0238 0.248144,-0.146198 0.571653,-0.271912 1.977541,-0.768479 3.437264,-1.797009 4.686575,-3.302221 1.236694,-1.490016 1.971575,-3.066061 2.3676,-5.077626 0.163367,-0.82979 0.164376,-2.838903 0.0018,-3.711449 -0.566946,-3.044052 -2.262816,-5.60616 -4.819603,-7.281409 -1.145062,-0.750263 -2.623297,-1.343891 -3.968471,-1.593662 -0.892935,-0.165793 -3.007755,-0.165793 -3.900691,0 -3.880776,0.720569 -7.138169,3.546428 -8.372531,7.263348 -1.47384,4.438015 0.01732,9.280324 3.730458,12.114622 0.877451,0.669755 2.056043,1.294147 3.247555,1.720479 0.139252,0.04987 0.245175,0.111427 0.235389,0.136883 -0.01026,0.02545 -1.818501,4.739843 -4.01936,10.476427 l -4.001567,10.430157 -0.269018,-0.004 c -0.171325,-0.002 -0.645018,-0.15969 -1.30445,-0.43341 z"
         id="path12541" /></mask><mask
       maskUnits="userSpaceOnUse"
       id="mask12543"><path
         style="fill:#ffffff;fill-opacity:1;stroke:none;stroke-width:0.0672533;stroke-opacity:1"
         d="M 61.472032,106.18291 C 53.58256,102.90807 47.3902,97.004959 43.823805,89.359025 41.133943,83.592288 40.145108,77.229746 40.956672,70.910888 c 0.84886,-6.609211 3.66517,-12.826596 8.103401,-17.889354 0.829397,-0.946109 2.562065,-2.630138 3.59105,-3.490238 5.392221,-4.50725 11.970978,-7.181399 19.054719,-7.745428 1.308973,-0.104219 4.878235,-0.04646 6.101733,0.0987 6.702446,0.795368 12.816083,3.404383 17.888959,7.634147 0.963524,0.803384 2.775424,2.568269 3.596128,3.502807 6.916238,7.875564 9.777468,18.500601 7.733288,28.717122 -1.29292,6.461807 -4.48746,12.450654 -9.103746,17.06695 -2.137371,2.137386 -4.483685,3.944616 -7.001115,5.392586 -1.846911,1.06231 -4.869297,2.42543 -5.372264,2.42295 l -0.242518,-10e-4 -4.001565,-10.430157 c -2.200861,-5.736584 -4.009011,-10.449651 -4.018113,-10.47348 -0.0091,-0.0238 0.248144,-0.146198 0.571653,-0.271912 1.977541,-0.768479 3.437264,-1.797009 4.686575,-3.302221 1.236694,-1.490016 1.971575,-3.066061 2.3676,-5.077626 0.163367,-0.82979 0.164376,-2.838903 0.0018,-3.711449 -0.566946,-3.044052 -2.262816,-5.60616 -4.819603,-7.281409 -1.145062,-0.750263 -2.623297,-1.343891 -3.968471,-1.593662 -0.892935,-0.165793 -3.007755,-0.165793 -3.900691,0 -3.880776,0.720569 -7.138169,3.546428 -8.372531,7.263348 -1.47384,4.438015 0.01732,9.280324 3.730458,12.114622 0.877451,0.669755 2.056043,1.294147 3.247555,1.720479 0.139252,0.04987 0.245175,0.111427 0.235389,0.136883 -0.01026,0.02545 -1.818501,4.739843 -4.01936,10.476427 l -4.001567,10.430157 -0.269018,-0.004 c -0.171325,-0.002 -0.645018,-0.15969 -1.30445,-0.43341 z"
         id="path12545" /></mask><mask
       maskUnits="userSpaceOnUse"
       id="mask12547"><path
         style="fill:#ffffff;fill-opacity:1;stroke:none;stroke-width:0.0672533;stroke-opacity:1"
         d="M 61.472032,106.18291 C 53.58256,102.90807 47.3902,97.004959 43.823805,89.359025 41.133943,83.592288 40.145108,77.229746 40.956672,70.910888 c 0.84886,-6.609211 3.66517,-12.826596 8.103401,-17.889354 0.829397,-0.946109 2.562065,-2.630138 3.59105,-3.490238 5.392221,-4.50725 11.970978,-7.181399 19.054719,-7.745428 1.308973,-0.104219 4.878235,-0.04646 6.101733,0.0987 6.702446,0.795368 12.816083,3.404383 17.888959,7.634147 0.963524,0.803384 2.775424,2.568269 3.596128,3.502807 6.916238,7.875564 9.777468,18.500601 7.733288,28.717122 -1.29292,6.461807 -4.48746,12.450654 -9.103746,17.06695 -2.137371,2.137386 -4.483685,3.944616 -7.001115,5.392586 -1.846911,1.06231 -4.869297,2.42543 -5.372264,2.42295 l -0.242518,-10e-4 -4.001565,-10.430157 c -2.200861,-5.736584 -4.009011,-10.449651 -4.018113,-10.47348 -0.0091,-0.0238 0.248144,-0.146198 0.571653,-0.271912 1.977541,-0.768479 3.437264,-1.797009 4.686575,-3.302221 1.236694,-1.490016 1.971575,-3.066061 2.3676,-5.077626 0.163367,-0.82979 0.164376,-2.838903 0.0018,-3.711449 -0.566946,-3.044052 -2.262816,-5.60616 -4.819603,-7.281409 -1.145062,-0.750263 -2.623297,-1.343891 -3.968471,-1.593662 -0.892935,-0.165793 -3.007755,-0.165793 -3.900691,0 -3.880776,0.720569 -7.138169,3.546428 -8.372531,7.263348 -1.47384,4.438015 0.01732,9.280324 3.730458,12.114622 0.877451,0.669755 2.056043,1.294147 3.247555,1.720479 0.139252,0.04987 0.245175,0.111427 0.235389,0.136883 -0.01026,0.02545 -1.818501,4.739843 -4.01936,10.476427 l -4.001567,10.430157 -0.269018,-0.004 c -0.171325,-0.002 -0.645018,-0.15969 -1.30445,-0.43341 z"
         id="path12549" /></mask></defs><sodipodi:namedview
     pagecolor="#ffffff"
     bordercolor="#666666"
     borderopacity="1"
     objecttolerance="10"
     gridtolerance="10"
     guidetolerance="10"
     inkscape:pageopacity="0"
     inkscape:pageshadow="2"
     inkscape:window-width="1366"
     inkscape:window-height="697"
     id="namedview32"
     showgrid="false"
     inkscape:zoom="2.8100619"
     inkscape:cx="32.917424"
     inkscape:cy="81.492867"
     inkscape:window-x="-8"
     inkscape:window-y="-8"
     inkscape:window-maximized="1"
     inkscape:current-layer="svg30"
     inkscape:measure-start="285,72.1937"
     inkscape:measure-end="285,127.873"
     showguides="true"
     inkscape:guide-bbox="true"
     fit-margin-top="0"
     fit-margin-left="0"
     fit-margin-right="0"
     fit-margin-bottom="0"
     inkscape:showpageshadow="2"
     inkscape:pagecheckerboard="0"
     inkscape:deskcolor="#d1d1d1" /><title
     id="title2">Flag of the Marshall Islands</title><path
     sodipodi:nodetypes="ccccccc"
     inkscape:connector-curvature="0"
     id="path897"
     d="M 36.447119,14.181737 V 36.516994 H 14.111861 v 8.82129 c 10.385516,0 20.771032,0 31.156548,0 0,-10.385516 0,-20.771032 0,-31.156547 z"
     style="fill:#9063cd;fill-opacity:1;stroke:#9063cd;stroke-width:5;stroke-linecap:butt;stroke-linejoin:miter;stroke-dasharray:none;stroke-opacity:1" /><path
     sodipodi:nodetypes="ccccccc"
     inkscape:connector-curvature="0"
     id="path897-6"
     d="M 93.498034,3.5355359 77.704623,19.328947 61.911209,3.5355359 55.673616,9.7731306 C 63.017285,17.116797 70.360954,24.460465 77.704623,31.804134 85.048289,24.460465 92.391958,17.116797 99.735615,9.7731306 Z"
     style="fill:#9063cd;fill-opacity:1;stroke:#9063cd;stroke-width:5;stroke-linecap:butt;stroke-linejoin:miter;stroke-dasharray:none;stroke-opacity:1" /><path
     sodipodi:nodetypes="ccccccc"
     inkscape:connector-curvature="0"
     id="path897-7"
     d="m 118.74847,14.111858 v 22.335258 h 22.33524 v 8.821289 c -10.38552,0 -20.77102,0 -31.15654,0 0,-10.385515 0,-20.771031 0,-31.156547 z"
     style="fill:#9063cd;fill-opacity:1;stroke:#9063cd;stroke-width:5;stroke-linecap:butt;stroke-linejoin:miter;stroke-dasharray:none;stroke-opacity:1" /><path
     sodipodi:nodetypes="ccccccc"
     inkscape:connector-curvature="0"
     id="path897-3"
     d="M 36.447119,141.24324 V 118.90797 H 14.111861 v -8.82128 c 10.385516,0 20.771032,0 31.156548,0 0,10.38552 0,20.77102 0,31.15655 z"
     style="fill:#9063cd;fill-opacity:1;stroke:#9063cd;stroke-width:5;stroke-linecap:butt;stroke-linejoin:miter;stroke-dasharray:none;stroke-opacity:1" /><path
     sodipodi:nodetypes="ccccccc"
     inkscape:connector-curvature="0"
     id="path897-7-6"
     d="m 118.74847,141.31311 v -22.33525 h 22.33524 v -8.82129 c -10.38552,0 -20.77102,0 -31.15654,0 0,10.38552 0,20.77104 0,31.15654 z"
     style="fill:#9063cd;fill-opacity:1;stroke:#9063cd;stroke-width:5;stroke-linecap:butt;stroke-linejoin:miter;stroke-dasharray:none;stroke-opacity:1" /><path
     sodipodi:nodetypes="ccccccc"
     inkscape:connector-curvature="0"
     id="path897-6-1"
     d="M 3.535536,61.76741 19.328948,77.560822 3.535536,93.354236 9.7731307,99.591829 C 17.116797,92.24816 24.460466,84.904491 31.804135,77.560822 24.460466,70.217156 17.116797,62.873487 9.7731307,55.52983 Z"
     style="fill:#9063cd;fill-opacity:1;stroke:#9063cd;stroke-width:5;stroke-linecap:butt;stroke-linejoin:miter;stroke-dasharray:none;stroke-opacity:1" /><path
     sodipodi:nodetypes="ccccccc"
     inkscape:connector-curvature="0"
     id="path897-6-5-9"
     d="m 151.88943,61.767406 -15.7934,15.793411 15.7934,15.793414 -6.2376,6.237593 c -7.34367,-7.343669 -14.68733,-14.687338 -22.031,-22.031007 7.34367,-7.343666 14.68733,-14.687335 22.031,-22.030992 z"
     style="fill:#9063cd;fill-opacity:1;stroke:#9063cd;stroke-width:5;stroke-linecap:butt;stroke-linejoin:miter;stroke-dasharray:none;stroke-opacity:1" /><path
     id="path15729"
     style="color:#000000;fill:#9063cd;stroke-linecap:square;stroke-miterlimit:2.5;stroke-dashoffset:8.50395;-inkscape-stroke:none;fill-opacity:1"
     d="M 77.677734 47.193359 C 70.043441 47.193359 62.407622 50.090425 56.615234 55.882812 C 45.03046 67.467587 45.03046 86.419132 56.615234 98.003906 L 60.130859 101.51953 L 52.685547 143.74414 L 63.515625 143.74414 L 72.236328 94.287109 C 70.765879 93.756032 69.815531 93.378487 68.851562 92.90625 C 67.977615 92.466289 65.85091 91.407551 64.53125 90.087891 C 57.22451 82.781149 57.224509 71.105569 64.53125 63.798828 C 71.837991 56.492087 83.515525 56.492087 90.822266 63.798828 C 98.129007 71.105569 98.129007 82.78115 90.822266 90.087891 C 89.526068 91.420586 88.052418 92.098801 86.34375 92.976562 C 85.379782 93.448799 84.429434 93.826344 82.958984 94.357422 L 91.679688 143.8125 L 102.50977 143.8125 L 95.078125 101.66406 L 98.738281 98.003906 C 110.32306 86.419132 110.32306 67.467587 98.738281 55.882812 C 92.945894 50.090425 85.312028 47.193359 77.677734 47.193359 z " /></svg>
